dist/icons/svgs/taxi-outline.svg

<svg xmlns="http://www.w3.org/2000/svg" width="24" height="24" fill="currentcolor" class="icon-taxi-outline" viewBox="0 0 24 24">
  <path d="M9.5 2H14.5C15.1641 2 15.75 2.58594 15.75 3.25V4.5C15.75 4.53906 15.75 4.53906 15.75 4.53906C17.1172 4.61719 18.2891 5.51562 18.7578 6.80469L20.0859 10.6328C21.2188 11.2969 22 12.5078 22 13.875V17V18.875V21.0625C22 21.6094 21.5703 22 21.0625 22C20.5156 22 20.125 21.6094 20.125 21.0625V18.875H3.875V21.0625C3.875 21.6094 3.44531 22 2.9375 22C2.39062 22 2 21.6094 2 21.0625V18.875V17V13.875C2 12.5078 2.74219 11.2969 3.875 10.6328L5.20312 6.80469C5.67188 5.51562 6.84375 4.61719 8.25 4.53906C8.25 4.53906 8.25 4.53906 8.25 4.5V3.25C8.25 2.58594 8.79688 2 9.5 2ZM8.44531 6.375C7.78125 6.375 7.19531 6.80469 6.96094 7.42969L6.02344 10.125H17.9375L17 7.42969C16.7656 6.80469 16.1797 6.375 15.5156 6.375H8.44531ZM5.75 12C4.69531 12 3.875 12.8594 3.875 13.875V17H20.125V13.875C20.125 12.8594 19.2656 12 18.25 12H5.75ZM7.625 14.5C7.625 15.2031 7.03906 15.75 6.375 15.75C5.67188 15.75 5.125 15.2031 5.125 14.5C5.125 13.8359 5.67188 13.25 6.375 13.25C7.03906 13.25 7.625 13.8359 7.625 14.5ZM17.625 15.75C16.9219 15.75 16.375 15.2031 16.375 14.5C16.375 13.8359 16.9219 13.25 17.625 13.25C18.2891 13.25 18.875 13.8359 18.875 14.5C18.875 15.2031 18.2891 15.75 17.625 15.75Z"/>
</svg>

<svg xmlns="http://www.w3.org/2000/svg" width="24" height="24" fill="currentColor" class="icon-taxi-outline" viewBox="0 0 24 24">
  <path d="M9.5 2h5c.664 0 1.25.586 1.25 1.25v1.29c1.367.077 2.54.976 3.008 2.265l1.328 3.828c1.133.664 1.914 1.875 1.914 3.242v7.188c0 .546-.43.937-.937.937-.547 0-.938-.39-.938-.937v-2.188H3.875v2.188c0 .546-.43.937-.937.937C2.39 22 2 21.61 2 21.063v-7.188c0-1.367.742-2.578 1.875-3.242l1.328-3.828A3.43 3.43 0 0 1 8.25 4.539V3.25C8.25 2.586 8.797 2 9.5 2M8.445 6.375c-.664 0-1.25.43-1.484 1.055l-.938 2.695h11.915L17 7.43c-.234-.625-.82-1.055-1.484-1.055zM5.75 12c-1.055 0-1.875.86-1.875 1.875V17h16.25v-3.125c0-1.016-.86-1.875-1.875-1.875zm1.875 2.5c0 .703-.586 1.25-1.25 1.25-.703 0-1.25-.547-1.25-1.25 0-.664.547-1.25 1.25-1.25.664 0 1.25.586 1.25 1.25m10 1.25c-.703 0-1.25-.547-1.25-1.25 0-.664.547-1.25 1.25-1.25.664 0 1.25.586 1.25 1.25 0 .703-.586 1.25-1.25 1.25"/>
</svg>
